assets/svg/bill.svg

<?xml version="1.0" encoding="utf-8"?><!-- Uploaded to: SVG Repo, www.svgrepo.com, Generator: SVG Repo Mixer Tools -->
<svg width="800px" height="800px" viewBox="0 0 24 24" fill="none" xmlns="http://www.w3.org/2000/svg">
<path fill-rule="evenodd" clip-rule="evenodd" d="M7.09878 1.25004C7.14683 1.25006 7.19559 1.25008 7.24508 1.25008H16.7551C16.8045 1.25008 16.8533 1.25006 16.9014 1.25004C17.9181 1.2496 18.6178 1.24929 19.2072 1.45435C20.3201 1.84161 21.1842 2.73726 21.5547 3.86559L20.8421 4.09954L21.5547 3.86559C21.7507 4.46271 21.7505 5.17254 21.7501 6.22655C21.7501 6.27372 21.7501 6.32158 21.7501 6.37014V20.3743C21.7501 21.8395 20.0231 22.7118 18.8857 21.671C18.8062 21.5983 18.694 21.5983 18.6145 21.671L18.1314 22.1131C17.2032 22.9624 15.7969 22.9624 14.8688 22.1131C14.5138 21.7882 13.9864 21.7882 13.6314 22.1131C12.7032 22.9624 11.2969 22.9624 10.3688 22.1131C10.0138 21.7882 9.48637 21.7882 9.13138 22.1131C8.20319 22.9624 6.79694 22.9624 5.86875 22.1131L5.38566 21.671C5.30618 21.5983 5.19395 21.5983 5.11448 21.671C3.97705 22.7118 2.25007 21.8395 2.25007 20.3743V6.37014C2.25007 6.32158 2.25005 6.27372 2.25003 6.22655C2.24965 5.17255 2.24939 4.46271 2.44545 3.86559C2.81591 2.73726 3.68002 1.84161 4.79298 1.45435C5.3823 1.24929 6.08203 1.2496 7.09878 1.25004ZM7.24508 2.75008C6.024 2.75008 5.6034 2.76057 5.28593 2.87103C4.62655 3.10047 4.09919 3.63728 3.8706 4.3335C3.75951 4.67183 3.75007 5.11796 3.75007 6.37014V20.3743C3.75007 20.4933 3.80999 20.5661 3.88517 20.6009C3.92434 20.619 3.96264 20.6237 3.99456 20.6194C4.0227 20.6156 4.05911 20.6035 4.10185 20.5644C4.75453 19.9671 5.74561 19.9671 6.39828 20.5644L6.88138 21.0065C7.23637 21.3313 7.76377 21.3313 8.11875 21.0065C9.04694 20.1571 10.4532 20.1571 11.3814 21.0065C11.7364 21.3313 12.2638 21.3313 12.6188 21.0065C13.5469 20.1571 14.9532 20.1571 15.8814 21.0065C16.2364 21.3313 16.7638 21.3313 17.1188 21.0065L17.6019 20.5644C18.2545 19.9671 19.2456 19.9671 19.8983 20.5644C19.941 20.6035 19.9774 20.6156 20.0056 20.6194C20.0375 20.6237 20.0758 20.619 20.115 20.6009C20.1901 20.5661 20.2501 20.4934 20.2501 20.3743V6.37014C20.2501 5.11797 20.2406 4.67183 20.1295 4.3335C19.9009 3.63728 19.3736 3.10047 18.7142 2.87103C18.3967 2.76057 17.9761 2.75008 16.7551 2.75008H7.24508ZM6.25007 7.50008C6.25007 7.08587 6.58585 6.75008 7.00007 6.75008H7.50007C7.91428 6.75008 8.25007 7.08587 8.25007 7.50008C8.25007 7.9143 7.91428 8.25008 7.50007 8.25008H7.00007C6.58585 8.25008 6.25007 7.9143 6.25007 7.50008ZM9.75007 7.50008C9.75007 7.08587 10.0859 6.75008 10.5001 6.75008H17.0001C17.4143 6.75008 17.7501 7.08587 17.7501 7.50008C17.7501 7.9143 17.4143 8.25008 17.0001 8.25008H10.5001C10.0859 8.25008 9.75007 7.9143 9.75007 7.50008ZM6.25007 11.0001C6.25007 10.5859 6.58585 10.2501 7.00007 10.2501H7.50007C7.91428 10.2501 8.25007 10.5859 8.25007 11.0001C8.25007 11.4143 7.91428 11.7501 7.50007 11.7501H7.00007C6.58585 11.7501 6.25007 11.4143 6.25007 11.0001ZM9.75007 11.0001C9.75007 10.5859 10.0859 10.2501 10.5001 10.2501H17.0001C17.4143 10.2501 17.7501 10.5859 17.7501 11.0001C17.7501 11.4143 17.4143 11.7501 17.0001 11.7501H10.5001C10.0859 11.7501 9.75007 11.4143 9.75007 11.0001ZM6.25007 14.5001C6.25007 14.0859 6.58585 13.7501 7.00007 13.7501H7.50007C7.91428 13.7501 8.25007 14.0859 8.25007 14.5001C8.25007 14.9143 7.91428 15.2501 7.50007 15.2501H7.00007C6.58585 15.2501 6.25007 14.9143 6.25007 14.5001ZM9.75007 14.5001C9.75007 14.0859 10.0859 13.7501 10.5001 13.7501H17.0001C17.4143 13.7501 17.7501 14.0859 17.7501 14.5001C17.7501 14.9143 17.4143 15.2501 17.0001 15.2501H10.5001C10.0859 15.2501 9.75007 14.9143 9.75007 14.5001Z" fill="#1C274C"/>
</svg>

<svg xmlns="http://www.w3.org/2000/svg" width="800" height="800" fill="none" viewBox="0 0 24 24">
    <path fill="#1c274c" fill-rule="evenodd"
        d="M7.099 1.25H16.9c1.017 0 1.717 0 2.306.204a3.8 3.8 0 0 1 2.348 2.412l-.713.234.713-.234c.196.597.195 1.307.195 2.36v14.148c0 1.466-1.727 2.338-2.864 1.297a.196.196 0 0 0-.271 0l-.484.442c-.928.85-2.334.85-3.262 0a.907.907 0 0 0-1.238 0c-.928.85-2.334.85-3.262 0a.907.907 0 0 0-1.238 0c-.928.85-2.334.85-3.262 0l-.483-.442a.196.196 0 0 0-.272 0c-1.137 1.04-2.864.169-2.864-1.297V6.227c0-1.054 0-1.764.195-2.361a3.8 3.8 0 0 1 2.348-2.412c.59-.205 1.289-.204 2.306-.204m.146 1.5c-1.221 0-1.642.01-1.96.121-.658.23-1.186.766-1.414 1.463-.111.338-.12.784-.12 2.036v14.004c0 .12.059.192.134.227a.2.2 0 0 0 .11.018.2.2 0 0 0 .107-.055 1.695 1.695 0 0 1 2.296 0l.483.442a.907.907 0 0 0 1.238 0 2.407 2.407 0 0 1 3.262 0 .907.907 0 0 0 1.238 0 2.407 2.407 0 0 1 3.262 0 .907.907 0 0 0 1.238 0l.483-.442a1.695 1.695 0 0 1 2.296 0c.043.04.08.052.108.055a.2.2 0 0 0 .109-.018c.075-.035.135-.108.135-.227V6.37c0-1.252-.01-1.698-.12-2.037a2.3 2.3 0 0 0-1.416-1.462c-.317-.11-.738-.12-1.959-.12zM6.25 7.5A.75.75 0 0 1 7 6.75h.5a.75.75 0 0 1 0 1.5H7a.75.75 0 0 1-.75-.75m3.5 0a.75.75 0 0 1 .75-.75H17a.75.75 0 0 1 0 1.5h-6.5a.75.75 0 0 1-.75-.75M6.25 11a.75.75 0 0 1 .75-.75h.5a.75.75 0 0 1 0 1.5H7a.75.75 0 0 1-.75-.75m3.5 0a.75.75 0 0 1 .75-.75H17a.75.75 0 0 1 0 1.5h-6.5a.75.75 0 0 1-.75-.75m-3.5 3.5a.75.75 0 0 1 .75-.75h.5a.75.75 0 0 1 0 1.5H7a.75.75 0 0 1-.75-.75m3.5 0a.75.75 0 0 1 .75-.75H17a.75.75 0 0 1 0 1.5h-6.5a.75.75 0 0 1-.75-.75"
        clip-rule="evenodd" />
</svg>
